X:1
T:Title
%%score { ( 1 3 ) | ( 2 4 ) }
L:1/8
M:4/4
K:Ab
V:1 treble nm="Grand Piano"
V:3 treble 
V:2 bass 
V:4 bass 
V:1
 z4 z2[Q:1/4=100] [CE][CE] | [CA][CA][CA][CA] [CA]2 [CE][CA] | [Ec][Ec][Ec][Ec] [Ec]2 [CA][Ec] | %3
 BBBB BBcB |[M:3/4] [CA]6 |[M:1/4] [CA][DB] |[M:4/4] [Ec][Ec][Ec][Ec] [Ec]2 [CA][Ec] | %7
 [Fd][Fd][Fd][Fd] [Fd]2 [DA][Fd] |[M:9/8] cc_c- c/c=cc/- c<BB |[M:3/4] [CA]6 |[M:1/4] [CA][Ec] | %11
[M:4/4] .[Fd]E,.[Fd]E, .[Fd]2 z2 | .[Ec]2 .[Ec]E, .[Ec]2 Ac | BBBB B2 [=Dc][Dc] | %14
 .BF,.BF, .B[K:bass]D,[K:treble][EA][EB] | [Ec][Ec][Ec][Ec] [Ec]2 [DB][Ec] | %16
[M:9/8] [Fd][Fd][Fd] [Fd] [Fd]2- [Fd][DA][Fd] | cc_c- c/c=cc/- c<BB | %18
 A2- [DA-] [DA-] [CA]2- [CA] z z |] %19
V:2
 z4 z2 [A,,A,][A,,A,] | [A,,E,][A,,E,][A,,E,][A,,E,] [A,,E,]2 [A,,A,][A,,A,] | %2
 [A,,A,][A,,A,][A,,A,][A,,A,] [A,,A,]2 [A,,E,][A,,A,] | %3
 [E,G,D][E,G,D][E,G,D][E,G,D] [E,G,D][E,G,D][E,A,E][E,G,D] |[M:3/4] [A,,E,]6 | %5
[M:1/4] [A,,E,][A,,E,] |[M:4/4] [A,,A,][A,,A,][A,,A,][A,,A,] [A,,A,]2 [A,,E,][A,,A,] | %7
 [D,A,][D,A,][D,A,][D,A,] [B,,B,]2 [D,F,][D,A,] | %8
[M:9/8] [E,A,E][E,A,E][=E,A,=D]- [E,A,D]/[E,A,D][_E,A,E][E,A,E]/- [E,A,E]<[E,G,_D][E,G,D] | %9
[M:3/4] [A,,E,]6 |[M:1/4] [A,,A,][A,,A,] |[M:4/4] .[D,A,]2 .[D,A,]2 .[D,A,]E,F,G, | %12
 A,E, .[C,A,]2 .[A,,A,]2 [A,C][A,E] | [F,A,=D][F,A,D][F,A,D][F,A,D] [F,A,D]2 [B,,A,][B,,A,] | %14
 .[E,G,E]2 .[E,G,E]2 .[E,G,E]2 [C,A,][B,,G,] | %15
 [A,,A,][A,,A,][A,,A,][A,,A,] [A,,A,]2 [A,,A,][A,,A,] | %16
[M:9/8] [D,A,][D,A,][D,A,] [D,A,] [B,,B,]2- [B,,B,][D,F,][D,A,] | %17
 [E,A,E][E,A,E][=E,A,=D]- [E,A,D]/[E,A,D][_E,A,E][E,A,E]/- [E,A,E]<[E,G,_D][E,G,D] | %18
 z2 F, =E, _E,2- E, z z |] %19
V:3
 x8 | x8 | x8 | x8 |[M:3/4] x6 |[M:1/4] x2 |[M:4/4] x8 | x8 |[M:9/8] x9 |[M:3/4] x6 |[M:1/4] x2 | %11
[M:4/4] x8 | x8 | x8 | x5[K:bass] x[K:treble] x2 | x8 |[M:9/8] x9 | x9 | .[A,C]3 z3 z3 |] %19
V:4
 x8 | x8 | x8 | x8 |[M:3/4] x6 |[M:1/4] x2 |[M:4/4] x8 | x8 |[M:9/8] x9 |[M:3/4] x6 |[M:1/4] x2 | %11
[M:4/4] x8 | x8 | x8 | x8 | x8 |[M:9/8] x9 | x9 | A,,6- A,, z z |] %19

